svgs/2620.svg

<svg xmlns="http://www.w3.org/2000/svg" version="1.1" xmlns:xlink="http://www.w3.org/1999/xlink" preserveAspectRatio="none" x="0px" y="0px" width="72px" height="72px" viewBox="0 0 72 72">
<defs>
<g id="Layer0_0_FILL">
<path fill="#CFD8DC" stroke="none" d="
M 70.7 5.8
Q 69.2 4.35 67.05 4.4 64.9 4.45 63.3 6.05
L 63.25 6.05 63.25 6.05
Q 63.642578125 5.257421875 64.3 4.6 65.55 3.35 67.3 3.05 66.95 2.1 66.2 1.3 64.75 -0.15 62.6 -0.1 60.4 0 58.85 1.6 57.25 3.15 57.2 5.3 57.1896484375 5.529296875 57.2 5.75 57.2 9.95 53.85 13.25
L 53.95 13.15
Q 45.073046875 22.4630859375 36 31.55 26.5869140625 22.130859375 17.35 12.45 14.964453125 9.66015625 14.75 6.2 14.8220703125 5.784375 14.8 5.3 14.7 3.15 13.15 1.6 11.55 0 9.4 -0.1 7.25 -0.15 5.75 1.3 4.3 2.8 4.4 4.95 4.45 7.1 6 8.7 6.05078125 8.7490234375 6.1 8.8 5.2439453125 8.3939453125 4.55 7.7 3.3 6.45 3 4.75 2.05 5.05 1.3 5.8 -0.15 7.3 -0.05 9.4 0.05 11.6 1.6 13.15 3.15 14.75 5.3 14.8 5.5291015625 14.8107421875 5.75 14.8 9.9 14.8 13.2 18.15
L 13.1 18
Q 17.9580078125 22.6634765625 22.75 27.35 23.087890625 27.6798828125 23.4 28 25.0484375 27.3 26.7 27.3 29.7 27.3 31.45 29.4 33.2 31.45 32.8 34.15 32.35 37.1 29.75 38.8 28.8033203125 39.418359375 27.7 39.8 20.5236328125 46.908203125 13.2 53.9 12.9673828125 54.12265625 12.7 54.35 9.609765625 57.2 5.75 57.2 5.53359375 57.19453125 5.3 57.2 3.1 57.3 1.55 58.85 0 60.45 -0.1 62.6 -0.15 64.75 1.3 66.25 2.75 67.7 4.9 67.65 7.1 67.55 8.65 66 8.6974609375 65.9525390625 8.75 65.9 8.34140625 66.75859375 7.65 67.45 6.4 68.7 4.7 69 5.05 69.95 5.75 70.7 7.25 72.15 9.4 72.1 11.55 72 13.15 70.45 14.7 68.9 14.8 66.7 14.8109375 66.471484375 14.8 66.25 14.8 62.6796875 17.25 59.75 25.001953125 51.5873046875 32.9 43.6 34.3927734375 42.0853515625 35.9 40.55
L 35.9 40.55
Q 35.9625 40.5123046875 36 40.45 36.0375 40.5123046875 36.05 40.55 36.1248046875 40.6 36.15 40.65 37.640234375 42.1234375 39.1 43.6 46.594140625 51.1798828125 53.95 58.85
L 53.85 58.8
Q 57.2 62.1 57.2 66.25 57.1890625 66.471484375 57.2 66.7 57.25 68.9 58.85 70.45 60.4 72.05 62.6 72.1 64.75 72.15 66.2 70.7 67.65 69.25 67.6 67.1 67.55 64.9 65.95 63.35
L 65.95 63.3 65.95 63.3
Q 66.7494140625 63.6994140625 67.4 64.35 68.65 65.6 68.95 67.35 69.9 66.95 70.7 66.25 72.15 64.75 72.1 62.6 72 60.45 70.45 58.85 68.85 57.3 66.7 57.2 66.471484375 57.1947265625 66.25 57.2 62.3423828125 57.2 59.2 54.35 58.9818359375 54.121875 58.75 53.9 51.876953125 47.3265625 45.1 40.65 44.661328125 40.2154296875 44.2 39.75 43.175390625 39.404296875 42.25 38.8 39.65 37.1 39.2 34.15 38.75 31.45 40.5 29.4 42.25 27.3 45.3 27.3 46.942578125 27.3 48.55 28 48.903515625 27.66328125 49.25 27.3 53.9763671875 22.71171875 58.75 18.15 59.0564453125 17.8568359375 59.35 17.55 62.43515625 14.8 66.25 14.8 66.4712890625 14.810546875 66.7 14.8 68.85 14.75 70.45 13.15 72 11.6 72.1 9.4 72.15 7.3 70.7 5.8 Z"/>
</g>

<g id="Layer0_1_FILL">
<path fill="#ECEFF1" stroke="none" d="
M 59.55 33.05
Q 59.55 22.45 53.7 16.65 47.55 10.55 35.9 10.55 24.35 10.55 18.35 16.65 12.55 22.45 12.55 33.05 12.55 44.65 19.45 49.8 20.95 50.95 22.9 51.8 23.1 58.25 26.75 60.2 27.430078125 60.590625 28.5 60.85 31.098046875 61.546484375 36 61.55
L 36.05 61.55
Q 40.9138671875 61.55 43.5 60.9 44.6095703125 60.6052734375 45.3 60.2 48.95 58.25 49.2 51.8 51.1 50.95 52.6 49.8 59.55 44.65 59.55 33.05
M 19.4 38.75
Q 17.75 37.2 17.75 35.05 17.75 32.4 20.7 29.85 23.7 27.4 26.8 27.4 29.75 27.4 31.5 29.45 33.25 31.5 32.85 34.2 32.4 37.1 29.8 38.8 27.4 40.4 24.1 40.4 21.2 40.4 19.4 38.75
M 41.1 47.1
Q 41.35 47.7 40.9 48.2 40.5 48.7 39.7 48.7
L 32.25 48.7
Q 31.5 48.7 31.05 48.2 30.6 47.65 30.95 47.1
L 34.7 39.8
Q 35.05 39.1 36.05 39.1 37 39.15 37.4 39.85
L 41.1 47.1
M 51.35 29.85
Q 54.3 32.4 54.3 35.05 54.3 37.2 52.65 38.75 50.85 40.4 47.95 40.4 44.65 40.4 42.25 38.8 39.65 37.1 39.2 34.2 38.75 31.5 40.5 29.45 42.25 27.4 45.25 27.4 48.35 27.4 51.35 29.85 Z"/>

<path fill="#2F2F2F" stroke="none" d="
M 54.3 35.05
Q 54.3 32.4 51.35 29.85 48.35 27.4 45.25 27.4 42.25 27.4 40.5 29.45 38.75 31.5 39.2 34.2 39.65 37.1 42.25 38.8 44.65 40.4 47.95 40.4 50.85 40.4 52.65 38.75 54.3 37.2 54.3 35.05
M 40.9 48.2
Q 41.35 47.7 41.1 47.1
L 37.4 39.85
Q 37 39.15 36.05 39.1 35.05 39.1 34.7 39.8
L 30.95 47.1
Q 30.6 47.65 31.05 48.2 31.5 48.7 32.25 48.7
L 39.7 48.7
Q 40.5 48.7 40.9 48.2
M 17.75 35.05
Q 17.75 37.2 19.4 38.75 21.2 40.4 24.1 40.4 27.4 40.4 29.8 38.8 32.4 37.1 32.85 34.2 33.25 31.5 31.5 29.45 29.75 27.4 26.8 27.4 23.7 27.4 20.7 29.85 17.75 32.4 17.75 35.05 Z"/>
</g>

<path id="Layer0_1_MEMBER_0_1_STROKES" stroke="#2F2F2F" stroke-width="2" stroke-linejoin="miter" stroke-linecap="round" stroke-miterlimit="3" fill="none" d="
M 36 55.85
L 36 60.85
M 28.5 60.35
L 28.5 55.85
M 43.5 55.85
L 43.5 60.35"/>
</defs>

<g id="Layer_1">
<g transform="matrix( 0.9937744140625, 0, 0, 0.9937744140625, 0.25,0.25) ">
<use xlink:href="#Layer0_0_FILL"/>
</g>

<g transform="matrix( 1, 0, 0, 1, 0,0) ">
<use xlink:href="#Layer0_1_FILL"/>
</g>

<g transform="matrix( 1, 0, 0, 1, 0,0) ">
<use xlink:href="#Layer0_1_MEMBER_0_1_STROKES"/>
</g>
</g>
</svg>

<svg xmlns="http://www.w3.org/2000/svg" xmlns:xlink="http://www.w3.org/1999/xlink" preserveAspectRatio="none" viewBox="0 0 72 72"><defs><path id="a" fill="#CFD8DC" d="M70.7 5.8q-1.5-1.45-3.65-1.4-2.15.05-3.75 1.65h-.05q.393-.793 1.05-1.45 1.25-1.25 3-1.55-.35-.95-1.1-1.75-1.45-1.45-3.6-1.4-2.2.1-3.75 1.7-1.6 1.55-1.65 3.7-.01.23 0 .45 0 4.2-3.35 7.5l.1-.1Q45.073 22.463 36 31.55q-9.413-9.42-18.65-19.1-2.386-2.79-2.6-6.25.072-.416.05-.9-.1-2.15-1.65-3.7Q11.55 0 9.4-.1 7.25-.15 5.75 1.3 4.3 2.8 4.4 4.95 4.45 7.1 6 8.7l.1.1q-.856-.406-1.55-1.1Q3.3 6.45 3 4.75q-.95.3-1.7 1.05Q-.15 7.3-.05 9.4q.1 2.2 1.65 3.75 1.55 1.6 3.7 1.65.23.01.45 0 4.15 0 7.45 3.35l-.1-.15q4.858 4.663 9.65 9.35.338.33.65.65 1.648-.7 3.3-.7 3 0 4.75 2.1 1.75 2.05 1.35 4.75-.45 2.95-3.05 4.65-.947.618-2.05 1-7.176 7.108-14.5 14.1-.233.223-.5.45-3.09 2.85-6.95 2.85-.216-.005-.45 0-2.2.1-3.75 1.65Q0 60.45-.1 62.6q-.05 2.15 1.4 3.65 1.45 1.45 3.6 1.4 2.2-.1 3.75-1.65l.1-.1q-.409.859-1.1 1.55Q6.4 68.7 4.7 69q.35.95 1.05 1.7 1.5 1.45 3.65 1.4 2.15-.1 3.75-1.65 1.55-1.55 1.65-3.75.01-.229 0-.45 0-3.57 2.45-6.5 7.752-8.163 15.65-16.15 1.493-1.515 3-3.05.063-.038.1-.1.038.062.05.1.075.05.1.1 1.49 1.473 2.95 2.95 7.494 7.58 14.85 15.25l-.1-.05q3.35 3.3 3.35 7.45-.01.221 0 .45.05 2.2 1.65 3.75 1.55 1.6 3.75 1.65 2.15.05 3.6-1.4 1.45-1.45 1.4-3.6-.05-2.2-1.65-3.75v-.05q.8.4 1.45 1.05 1.25 1.25 1.55 3 .95-.4 1.75-1.1 1.45-1.5 1.4-3.65-.1-2.15-1.65-3.75-1.6-1.55-3.75-1.65-.229-.005-.45 0-3.908 0-7.05-2.85-.218-.228-.45-.45-6.873-6.573-13.65-13.25-.439-.435-.9-.9-1.025-.346-1.95-.95-2.6-1.7-3.05-4.65-.45-2.7 1.3-4.75 1.75-2.1 4.8-2.1 1.643 0 3.25.7.354-.337.7-.7 4.726-4.588 9.5-9.15.306-.293.6-.6 3.085-2.75 6.9-2.75.221.01.45 0 2.15-.05 3.75-1.65Q72 11.6 72.1 9.4q.05-2.1-1.4-3.6z"/><g id="b"><path fill="#ECEFF1" d="M59.55 33.05q0-10.6-5.85-16.4-6.15-6.1-17.8-6.1-11.55 0-17.55 6.1-5.8 5.8-5.8 16.4 0 11.6 6.9 16.75 1.5 1.15 3.45 2 .2 6.45 3.85 8.4.68.39 1.75.65 2.598.696 7.5.7h.05q4.864 0 7.45-.65 1.11-.295 1.8-.7 3.65-1.95 3.9-8.4 1.9-.85 3.4-2 6.95-5.15 6.95-16.75m-40.15 5.7q-1.65-1.55-1.65-3.7 0-2.65 2.95-5.2 3-2.45 6.1-2.45 2.95 0 4.7 2.05t1.35 4.75q-.45 2.9-3.05 4.6-2.4 1.6-5.7 1.6-2.9 0-4.7-1.65m21.7 8.35q.25.6-.2 1.1-.4.5-1.2.5h-7.45q-.75 0-1.2-.5-.45-.55-.1-1.1l3.75-7.3q.35-.7 1.35-.7.95.05 1.35.75l3.7 7.25m10.25-17.25q2.95 2.55 2.95 5.2 0 2.15-1.65 3.7-1.8 1.65-4.7 1.65-3.3 0-5.7-1.6-2.6-1.7-3.05-4.6-.45-2.7 1.3-4.75t4.75-2.05q3.1 0 6.1 2.45z"/><path fill="#2F2F2F" d="M54.3 35.05q0-2.65-2.95-5.2-3-2.45-6.1-2.45-3 0-4.75 2.05t-1.3 4.75q.45 2.9 3.05 4.6 2.4 1.6 5.7 1.6 2.9 0 4.7-1.65 1.65-1.55 1.65-3.7M40.9 48.2q.45-.5.2-1.1l-3.7-7.25q-.4-.7-1.35-.75-1 0-1.35.7l-3.75 7.3q-.35.55.1 1.1.45.5 1.2.5h7.45q.8 0 1.2-.5M17.75 35.05q0 2.15 1.65 3.7 1.8 1.65 4.7 1.65 3.3 0 5.7-1.6 2.6-1.7 3.05-4.6.4-2.7-1.35-4.75t-4.7-2.05q-3.1 0-6.1 2.45-2.95 2.55-2.95 5.2z"/></g><path id="c" fill="none" stroke="#2F2F2F" stroke-linecap="round" stroke-linejoin="miter" stroke-miterlimit="3" stroke-width="2" d="M36 55.85v5m-7.5-.5v-4.5m15 0v4.5"/></defs><use transform="matrix(.99377 0 0 .99377 .25 .25)" xlink:href="#a"/><use xlink:href="#b"/><use xlink:href="#c"/></svg>
